modules/config/config.svg

<?xml version="1.0" encoding="UTF-8" standalone="no"?>
<!--part of the rodentia icon theme by sixsixfive released under CC0 (https://creativecommons.org/publicdomain/zero/1.0/) on openclipart-->

<svg
   viewBox="0 0 400 400"
   version="1.1"
   id="svg45"
   sodipodi:docname="config.svg"
   width="400"
   height="400"
   inkscape:version="1.2 (dc2aedaf03, 2022-05-15)"
   inkscape:export-filename="config.png"
   inkscape:export-xdpi="96"
   inkscape:export-ydpi="96"
   xmlns:inkscape="http://www.inkscape.org/namespaces/inkscape"
   xmlns:sodipodi="http://sodipodi.sourceforge.net/DTD/sodipodi-0.dtd"
   xmlns:xlink="http://www.w3.org/1999/xlink"
   xmlns="http://www.w3.org/2000/svg"
   xmlns:svg="http://www.w3.org/2000/svg"
   xmlns:rdf="http://www.w3.org/1999/02/22-rdf-syntax-ns#"
   xmlns:cc="http://creativecommons.org/ns#">
  <sodipodi:namedview
     id="namedview47"
     pagecolor="#ffffff"
     bordercolor="#000000"
     borderopacity="0.25"
     inkscape:showpageshadow="2"
     inkscape:pageopacity="0.0"
     inkscape:pagecheckerboard="0"
     inkscape:deskcolor="#d1d1d1"
     showgrid="false"
     inkscape:zoom="1.5395044"
     inkscape:cx="160.44124"
     inkscape:cy="221.49985"
     inkscape:window-width="1920"
     inkscape:window-height="1017"
     inkscape:window-x="-8"
     inkscape:window-y="-8"
     inkscape:window-maximized="1"
     inkscape:current-layer="svg45" />
  <defs
     id="0">
    <linearGradient
       id="linearGradient1063">
      <stop
         id="stop1059"
         stop-color="#babdb6"
         offset="0"
         style="stop-color:#3af6f6;stop-opacity:1;" />
      <stop
         id="stop1061"
         offset="1"
         stop-color="#888a85"
         style="stop-color:#85868a;stop-opacity:1;" />
    </linearGradient>
    <linearGradient
       id="linearGradient1055">
      <stop
         id="stop1051"
         stop-color="#d3d7cf"
         offset="0"
         style="stop-color:#cfd4d7;stop-opacity:1;" />
      <stop
         id="stop1053"
         offset="1"
         stop-color="#888a85" />
    </linearGradient>
    <linearGradient
       id="2">
      <stop
         id="J"
         stop-color="#2e3436" />
      <stop
         id="K"
         offset="1"
         stop-color="#2e3436"
         stop-opacity="0" />
    </linearGradient>
    <linearGradient
       id="3">
      <stop
         id="L"
         stop-color="#555753" />
      <stop
         id="M"
         offset="1"
         stop-color="#2e3436"
         stop-opacity="0" />
    </linearGradient>
    <linearGradient
       id="4">
      <stop
         id="N"
         stop-color="#d3d7cf"
         offset="0"
         style="stop-color:#cfd3d7;stop-opacity:1;" />
      <stop
         id="O"
         offset="1"
         stop-color="#888a85" />
    </linearGradient>
    <linearGradient
       id="5">
      <stop
         id="P"
         stop-color="#d3d7cf"
         offset="0.29891303"
         style="stop-color:#49effd;stop-opacity:1;" />
      <stop
         id="Q"
         offset="1"
         stop-color="#babdb6" />
    </linearGradient>
    <linearGradient
       id="6">
      <stop
         id="R"
         stop-color="#babdb6"
         offset="0"
         style="stop-color:#b6b7bd;stop-opacity:1;" />
      <stop
         id="S"
         offset="1"
         stop-color="#888a85" />
    </linearGradient>
    <linearGradient
       id="7">
      <stop
         id="T"
         stop-color="#555753" />
      <stop
         id="U"
         offset="1"
         stop-color="#555753"
         stop-opacity="0" />
    </linearGradient>
    <linearGradient
       id="8">
      <stop
         id="V"
         stop-color="#fff"
         stop-opacity="0.8" />
      <stop
         id="W"
         offset="1"
         stop-color="#fff"
         stop-opacity="0" />
    </linearGradient>
    <radialGradient
       cx="28.309999"
       cy="49.209999"
       r="29.631001"
       id="9"
       xlink:href="#2"
       gradientUnits="userSpaceOnUse"
       gradientTransform="matrix(1,0,0,0.2193309,0,38.41805)" />
    <radialGradient
       cx="15.377"
       cy="16.886999"
       r="17.518999"
       id="A"
       xlink:href="#6"
       gradientUnits="userSpaceOnUse"
       gradientTransform="matrix(-0.7187342,1.823343,-2.4589993,-0.9693001,67.955138,4.3919888)" />
    <radialGradient
       cx="22.82"
       cy="12.09"
       r="16.371"
       id="B"
       xlink:href="#5"
       gradientUnits="userSpaceOnUse"
       gradientTransform="matrix(0.04423231,0.5832604,-1.2050316,0.09138537,30.624479,-11.223376)" />
    <radialGradient
       cx="24.650999"
       cy="29.219999"
       r="12.843"
       id="C"
       xlink:href="#4"
       gradientUnits="userSpaceOnUse"
       gradientTransform="matrix(1.8213465,-1.2455015,0.9347914,1.3669841,-54.038367,20.713496)" />
    <linearGradient
       y1="8.1090002"
       x2="0"
       y2="42.200001"
       id="D"
       xlink:href="#8"
       gradientUnits="userSpaceOnUse"
       gradientTransform="matrix(1.1691829,0,0,1.0963671,-5.3757184,-3.5462228)" />
    <radialGradient
       cx="15.944"
       cy="13.237"
       r="12.843"
       id="E"
       xlink:href="#linearGradient1055"
       gradientUnits="userSpaceOnUse"
       gradientTransform="matrix(-0.2907446,2.5352177,-3.9714465,-0.4554546,71.72371,-19.399646)" />
    <linearGradient
       y1="18.908001"
       x2="0"
       y2="24.23"
       id="F"
       xlink:href="#3"
       gradientUnits="userSpaceOnUse" />
    <linearGradient
       y1="21.049999"
       x2="0"
       y2="25.907"
       id="G"
       xlink:href="#7"
       gradientUnits="userSpaceOnUse"
       gradientTransform="matrix(1.1691829,0,0,1.0963671,-6.7699641,10.202438)" />
    <linearGradient
       inkscape:collect="always"
       xlink:href="#linearGradient1063"
       id="linearGradient1057"
       x1="5.0866036"
       y1="23.37248"
       x2="40.124905"
       y2="23.37248"
       gradientUnits="userSpaceOnUse" />
  </defs>
  <g
     id="1"
     transform="matrix(11.003099,0,0,9.8371599,-63.718924,-37.190557)">
    <g
       id="I">
      <g
         transform="translate(1.3942457,0.6275188)"
         id="X">
        <path
           d="M 5.6526035,8.5715257 V 42.558905 H 39.558905 V 8.5715257 L 34.882174,4.1860574 H 10.329335 Z"
           id="Y"
           fill="url(#A)"
           fill-rule="evenodd"
           stroke="#555753"
           stroke-linejoin="round"
           stroke-linecap="round"
           stroke-width="1.132"
           style="fill:url(#linearGradient1057);fill-opacity:1;stroke:#92eefb;stroke-opacity:1" />
        <path
           d="M 10.591515,4.8441446 6.2386084,9.027732 7.6281646,9.3018233 H 37.810001 L 38.980335,9.027732 34.463549,4.8441446 Z"
           id="Z"
           fill="url(#B)"
           fill-rule="evenodd"
           style="fill:url(#B)" />
        <rect
           width="24.552999"
           height="11.02"
           rx="1.086"
           ry="1.018"
           x="10.269"
           y="28.040001"
           id="a"
           opacity="0.5"
           fill="none"
           stroke="#ffffff"
           stroke-linejoin="round"
           stroke-linecap="round"
           stroke-width="1.132" />
        <rect
           width="24.552999"
           height="11.02"
           rx="1.086"
           ry="1.018"
           x="10.269"
           y="27.049999"
           id="b"
           fill="url(#C)"
           fill-rule="evenodd"
           stroke="#555753"
           stroke-linejoin="round"
           stroke-linecap="round"
           stroke-width="1.132"
           style="fill:url(#C);stroke:#118099;stroke-opacity:1" />
        <path
           d="M 12.28125,5.34375 V 5.375 c -0.07818,-0.00214 -0.144437,-0.027843 -0.21875,0 L 11.9375,5.40625 11.875,5.5 l -4,3.75 -0.09375,0.09375 -0.0625,0.125 c -0.027843,0.074313 -0.00214,0.1405683 0,0.21875 H 7.6875 V 42.125 h 0.03125 c -0.00214,0.07818 -0.027843,0.144437 0,0.21875 l 0.09375,0.25 0.25,0.09375 c 0.074313,0.02784 0.1405683,0.0021 0.21875,0 v 0.03125 h 31.4375 V 42.6875 c 0.07818,0.0021 0.144437,0.02784 0.21875,0 l 0.25,-0.09375 0.09375,-0.25 c 0.02784,-0.07431 0.0021,-0.140568 0,-0.21875 H 40.3125 V 9.6875 h -0.03125 c 0.0021,-0.078182 0.02784,-0.1444369 0,-0.21875 L 40.21875,9.34375 40.125,9.25 36.15625,5.5 36.09375,5.40625 35.96875,5.375 C 35.89444,5.347157 35.828182,5.37286 35.75,5.375 V 5.34375 Z m 0.1875,1.125 H 35.5625 L 39.1875,9.875 V 9.90625 H 8.8125 V 9.875 Z m -3.65625,4.4375 h 30.375 v 30.6875 H 8.8125 Z"
           transform="translate(-1.3942457,-0.6275188)"
           id="c"
           opacity="0.8"
           fill="url(#D)"
           fill-rule="evenodd"
           style="fill:url(#D)" />
        <rect
           width="24.552999"
           height="11.02"
           rx="1.086"
           ry="1.018"
           x="10.269"
           y="13.669"
           id="d"
           opacity="0.5"
           fill="none"
           stroke="#ffffff"
           stroke-linejoin="round"
           stroke-linecap="round"
           stroke-width="1.132" />
        <rect
           width="24.552999"
           height="11.02"
           rx="1.086"
           ry="1.018"
           x="10.269"
           y="12.669"
           id="e"
           fill="url(#E)"
           fill-rule="evenodd"
           stroke="#555753"
           stroke-linejoin="round"
           stroke-linecap="round"
           stroke-width="1.132"
           style="fill:url(#E);stroke:#098ea1;stroke-opacity:1" />
        <rect
           width="7.8889999"
           height="4.1900001"
           rx="0.33500001"
           ry="0.37"
           x="18.652"
           y="19.474001"
           id="f"
           fill="url(#F)"
           fill-rule="evenodd"
           stroke="#555753"
           stroke-linejoin="round"
           stroke-linecap="round"
           stroke-width="1.132"
           style="fill:url(#F)" />
        <rect
           width="7.8889999"
           height="4.1900001"
           rx="0.33500001"
           ry="0.37"
           x="18.652"
           y="33.849998"
           id="g"
           fill="url(#G)"
           fill-rule="evenodd"
           stroke="#555753"
           stroke-linejoin="round"
           stroke-linecap="round"
           stroke-width="1.132"
           style="fill:url(#G)" />
      </g>
    </g>
  </g>
  <metadata
     id="metadata276">
    <rdf:RDF>
      <cc:Work
         rdf:about="">
        <cc:license
           rdf:resource="http://creativecommons.org/publicdomain/zero/1.0/" />
      </cc:Work>
      <cc:License
         rdf:about="http://creativecommons.org/publicdomain/zero/1.0/">
        <cc:permits
           rdf:resource="http://creativecommons.org/ns#Reproduction" />
        <cc:permits
           rdf:resource="http://creativecommons.org/ns#Distribution" />
        <cc:permits
           rdf:resource="http://creativecommons.org/ns#DerivativeWorks" />
      </cc:License>
    </rdf:RDF>
  </metadata>
</svg>

<svg width="400" height="400" version="1.1" viewBox="0 0 400 400" xmlns="http://www.w3.org/2000/svg" xmlns:xlink="http://www.w3.org/1999/xlink">
 <defs>
  <radialGradient id="B" cx="22.82" cy="12.09" r="16.371" gradientTransform="matrix(.044232 .58326 -1.205 .091385 30.624 -11.223)" gradientUnits="userSpaceOnUse">
   <stop id="P" stop-color="#49effd" offset=".29891"/>
   <stop id="Q" stop-color="#babdb6" offset="1"/>
  </radialGradient>
  <radialGradient id="C" cx="24.651" cy="29.22" r="12.843" gradientTransform="matrix(1.8213 -1.2455 .93479 1.367 -54.038 20.713)" gradientUnits="userSpaceOnUse">
   <stop id="N" stop-color="#cfd3d7" offset="0"/>
   <stop id="O" stop-color="#888a85" offset="1"/>
  </radialGradient>
  <linearGradient id="D" x2="0" y1="8.109" y2="42.2" gradientTransform="matrix(1.1692 0 0 1.0964 -5.3757 -3.5462)" gradientUnits="userSpaceOnUse">
   <stop id="V" stop-color="#fff" stop-opacity=".8" offset="0"/>
   <stop id="W" stop-color="#fff" stop-opacity="0" offset="1"/>
  </linearGradient>
  <radialGradient id="E" cx="15.944" cy="13.237" r="12.843" gradientTransform="matrix(-.29074 2.5352 -3.9714 -.45545 71.724 -19.4)" gradientUnits="userSpaceOnUse">
   <stop stop-color="#cfd4d7" offset="0"/>
   <stop stop-color="#888a85" offset="1"/>
  </radialGradient>
  <linearGradient id="F" x2="0" y1="18.908" y2="24.23" gradientUnits="userSpaceOnUse">
   <stop id="L" stop-color="#555753" offset="0"/>
   <stop id="M" stop-color="#2e3436" stop-opacity="0" offset="1"/>
  </linearGradient>
  <linearGradient id="G" x2="0" y1="21.05" y2="25.907" gradientTransform="matrix(1.1692 0 0 1.0964 -6.77 10.202)" gradientUnits="userSpaceOnUse">
   <stop id="T" stop-color="#555753" offset="0"/>
   <stop id="U" stop-color="#555753" stop-opacity="0" offset="1"/>
  </linearGradient>
  <linearGradient id="linearGradient1057" x1="5.0866" x2="40.125" y1="23.372" y2="23.372" gradientUnits="userSpaceOnUse">
   <stop stop-color="#3af6f6" offset="0"/>
   <stop stop-color="#85868a" offset="1"/>
  </linearGradient>
 </defs>
 <g transform="matrix(11.003 0 0 9.8372 -63.719 -37.191)">
  <g id="I">
   <g id="X" transform="translate(1.3942 .62752)">
    <path id="Y" d="m5.6526 8.5715v33.987h33.906v-33.987l-4.6767-4.3855h-24.553z" fill="url(#linearGradient1057)" fill-rule="evenodd" stroke="#92eefb" stroke-linecap="round" stroke-linejoin="round" stroke-width="1.132"/>
    <path id="Z" d="m10.592 4.8441-4.3529 4.1836 1.3896 0.27409h30.182l1.1703-0.27409-4.5168-4.1836z" fill="url(#B)" fill-rule="evenodd"/>
    <rect id="a" x="10.269" y="28.04" width="24.553" height="11.02" rx="1.086" ry="1.018" fill="none" opacity=".5" stroke="#fff" stroke-linecap="round" stroke-linejoin="round" stroke-width="1.132"/>
    <rect id="b" x="10.269" y="27.05" width="24.553" height="11.02" rx="1.086" ry="1.018" fill="url(#C)" fill-rule="evenodd" stroke="#118099" stroke-linecap="round" stroke-linejoin="round" stroke-width="1.132"/>
    <path id="c" transform="translate(-1.3942 -.62752)" d="m12.281 5.3438v0.03125c-0.07818-0.00214-0.14444-0.027843-0.21875 0l-0.125 0.03125-0.0625 0.09375-4 3.75-0.09375 0.09375-0.0625 0.125c-0.027843 0.074313-0.00214 0.14057 0 0.21875h-0.03125v32.438h0.03125c-0.00214 0.07818-0.027843 0.14444 0 0.21875l0.09375 0.25 0.25 0.09375c0.074313 0.02784 0.14057 0.0021 0.21875 0v0.03125h31.438v-0.03125c0.07818 0.0021 0.14444 0.02784 0.21875 0l0.25-0.09375 0.09375-0.25c0.02784-0.07431 0.0021-0.14057 0-0.21875h0.03125v-32.438h-0.03125c0.0021-0.078182 0.02784-0.14444 0-0.21875l-0.0625-0.125-0.09375-0.09375-3.9688-3.75-0.0625-0.09375-0.125-0.03125c-0.07431-0.027843-0.14057-0.00214-0.21875 0v-0.03125zm0.1875 1.125h23.094l3.625 3.4062v0.03125h-30.375v-0.03125zm-3.6562 4.4375h30.375v30.688h-30.375z" fill="url(#D)" fill-rule="evenodd" opacity=".8"/>
    <rect id="d" x="10.269" y="13.669" width="24.553" height="11.02" rx="1.086" ry="1.018" fill="none" opacity=".5" stroke="#fff" stroke-linecap="round" stroke-linejoin="round" stroke-width="1.132"/>
    <g fill-rule="evenodd" stroke-linecap="round" stroke-linejoin="round" stroke-width="1.132">
     <rect id="e" x="10.269" y="12.669" width="24.553" height="11.02" rx="1.086" ry="1.018" fill="url(#E)" stroke="#098ea1"/>
     <rect id="f" x="18.652" y="19.474" width="7.889" height="4.19" rx=".335" ry=".37" fill="url(#F)" stroke="#555753"/>
     <rect id="g" x="18.652" y="33.85" width="7.889" height="4.19" rx=".335" ry=".37" fill="url(#G)" stroke="#555753"/>
    </g>
   </g>
  </g>
 </g>
</svg>
